digitransit-component/packages/digitransit-component-icon/src/assets/amporto/subway.svg

<svg xmlns="http://www.w3.org/2000/svg" viewBox="0 0 50 50" fill="none">
  <path fill-rule="evenodd" clip-rule="evenodd" d="M11.3508 7.19751C15.2484 5.11483 20.2193 4.16673 24.9998 4.16675C29.7804 4.16676 34.7513 5.11488 38.6489 7.19759C42.5777 9.29701 45.8332 12.8349 45.8332 17.9287V42.7051C45.8332 43.5348 45.5017 44.3306 44.9121 44.9171C44.3221 45.5042 43.5221 45.8334 42.6885 45.8334L7.31116 45.8333C5.57442 45.8333 4.1665 44.4327 4.1665 42.705L4.16652 17.9285C4.16652 12.8348 7.422 9.29689 11.3508 7.19751ZM24.9998 7.29504C20.5776 7.29503 16.1555 8.18117 12.8389 9.95339C9.51896 11.7274 7.31117 14.3868 7.31117 17.9285L7.31116 42.705L42.6885 42.7051V17.9287C42.6885 14.3869 40.4807 11.7275 37.1608 9.95347C33.8443 8.18122 29.4221 7.29506 24.9998 7.29504Z" fill="#000F9F"/>
  <path d="M14.097 44.8345V43.0234L16.8279 41.2123C15.0376 41.2123 13.5281 40.6011 12.2992 39.3786C11.0703 38.1561 10.4558 36.6543 10.4558 34.8734V17.6678C10.4558 15.1624 11.624 13.3287 13.9604 12.1665C16.2969 11.0044 19.9836 10.4233 25.0205 10.4233C30.2395 10.4233 33.9718 10.9817 36.2171 12.0986C38.4625 13.2155 39.5852 15.0719 39.5852 17.6678V34.8734C39.5852 36.6543 38.9708 38.1561 37.7419 39.3786C36.513 40.6011 35.0034 41.2123 33.2132 41.2123L35.9441 43.0234V44.8345H14.097ZM14.097 24.9123H23.1999V19.4789H14.097V24.9123ZM26.8411 24.9123H35.9441V19.4789H26.8411V24.9123ZM18.6485 35.779C19.407 35.779 20.0518 35.5148 20.5828 34.9866C21.1138 34.4584 21.3793 33.8169 21.3793 33.0623C21.3793 32.3077 21.1138 31.6662 20.5828 31.138C20.0518 30.6097 19.407 30.3456 18.6485 30.3456C17.8899 30.3456 17.2451 30.6097 16.7141 31.138C16.1831 31.6662 15.9176 32.3077 15.9176 33.0623C15.9176 33.8169 16.1831 34.4584 16.7141 34.9866C17.2451 35.5148 17.8899 35.779 18.6485 35.779ZM31.3926 35.779C32.1512 35.779 32.796 35.5148 33.327 34.9866C33.858 34.4584 34.1235 33.8169 34.1235 33.0623C34.1235 32.3077 33.858 31.6662 33.327 31.138C32.796 30.6097 32.1512 30.3456 31.3926 30.3456C30.634 30.3456 29.9892 30.6097 29.4582 31.138C28.9272 31.6662 28.6617 32.3077 28.6617 33.0623C28.6617 33.8169 28.9272 34.4584 29.4582 34.9866C29.9892 35.5148 30.634 35.779 31.3926 35.779ZM16.8279 37.5901H33.2132C34.0021 37.5901 34.6545 37.3335 35.1703 36.8204C35.6861 36.3072 35.9441 35.6582 35.9441 34.8734V28.5345H14.097V34.8734C14.097 35.6582 14.3549 36.3072 14.8707 36.8204C15.3866 37.3335 16.039 37.5901 16.8279 37.5901ZM25.0205 14.0456C22.411 14.0456 20.2491 14.1965 18.5347 14.4983C16.8203 14.8002 15.6141 15.253 14.9163 15.8567H35.3069C34.7607 15.253 33.6304 14.8002 31.916 14.4983C30.2016 14.1965 27.9031 14.0456 25.0205 14.0456Z" fill="#000F9F"/>
</svg>

<svg xmlns="http://www.w3.org/2000/svg" viewBox="0 0 50 50" fill="none" style="fill: rgb(0, 9, 95);"><path fill-rule="evenodd" clip-rule="evenodd" d="M11.35 7.198C15.249 5.115 20.22 4.167 25 4.167c4.78 0 9.751.948 13.649 3.03 3.929 2.1 7.184 5.638 7.184 10.732v24.776a3.12 3.12 0 0 1-.92 2.212c-.59.587-1.39.916-2.224.916H7.31a3.137 3.137 0 0 1-3.144-3.128V17.929c0-5.094 3.255-8.632 7.184-10.731ZM25 7.295c-4.422 0-8.845.886-12.161 2.658-3.32 1.774-5.528 4.434-5.528 7.976v24.776h35.377V17.93c0-3.542-2.207-6.201-5.527-7.976C33.844 8.181 29.422 7.295 25 7.295Z" fill="#0c534a"></path><path d="M14.097 44.834v-1.81l2.73-1.812c-1.79 0-3.299-.61-4.528-1.833-1.229-1.223-1.843-2.725-1.843-4.506V17.668c0-2.506 1.168-4.34 3.504-5.502 2.337-1.162 6.024-1.743 11.06-1.743 5.22 0 8.952.559 11.197 1.676 2.245 1.117 3.368 2.973 3.368 5.569v17.205c0 1.781-.614 3.283-1.843 4.506-1.229 1.222-2.739 1.833-4.529 1.833l2.731 1.811v1.811H14.097Zm0-19.922H23.2V19.48h-9.103v5.433Zm12.744 0h9.103V19.48h-9.103v5.433ZM18.648 35.78a2.64 2.64 0 0 0 1.935-.792c.53-.529.796-1.17.796-1.925 0-.754-.265-1.396-.796-1.924a2.64 2.64 0 0 0-1.934-.792 2.64 2.64 0 0 0-1.935.792 2.613 2.613 0 0 0-.796 1.924c0 .755.265 1.396.796 1.925a2.64 2.64 0 0 0 1.934.792Zm12.745 0a2.64 2.64 0 0 0 1.934-.792c.531-.529.797-1.17.797-1.925 0-.754-.266-1.396-.797-1.924a2.64 2.64 0 0 0-1.934-.792 2.64 2.64 0 0 0-1.935.792 2.613 2.613 0 0 0-.796 1.924c0 .755.265 1.396.796 1.925a2.64 2.64 0 0 0 1.935.792ZM16.828 37.59h16.385c.79 0 1.441-.257 1.957-.77s.774-1.162.774-1.947v-6.338H14.097v6.338c0 .785.258 1.434.774 1.947.516.514 1.168.77 1.957.77Zm8.192-23.544c-2.609 0-4.77.15-6.485.452-1.715.302-2.92.755-3.619 1.359h20.39c-.545-.604-1.676-1.057-3.39-1.359-1.714-.301-4.013-.452-6.896-.452Z" fill="#0c534a"></path></svg>
